X:1
T:POLKA DES FIFRES
T:POLKA DES FIFRES
T:Emeri LIÉGEOIS.
T:2282
T:2282
T:2282
T:2282
C:Emeri LIÉGEOIS.
Z:2282
%%score { 1 | ( 2 3 ) }
L:1/8
Q:1/4=100
M:2/4
K:F
V:1 treble nm="Piano" snm="Pno."
V:2 bass 
V:3 bass 
V:1
!f! [cc']c'/c/ c'/c/c'/c/ | c'c'/c/ c'/c/c'/c/ | c'/c/c'/c/ c'/c/c'/c/ | c'/c/e/g/ c' z | %4
!8va(! [c'c'']c''/c'/ c''/c'/c''/c'/ | c''c''/c'/ c''/c'/c''/c'/ | c''/c'/c''/c'/ c''/c'/c''/c'/ | %7
 c''c''/c''/ c''c'' ||"^POLKA."!p! c''c''/b'/ a'/c''/b'/a'/ | b'g' g' z | a'a'/g'/ f'/a'/g'/f'/ | %11
 g'c' c' z | d'd'/e'/ f'/e'/f'/d'/ | c'f'/a'/ c'' z | c''c''/d''/ c''/b'/a'/g'/ | a'f' c'' z | %16
 c''c''/b'/ a'/c''/b'/a'/ | b'g' g' z | a'a'/g'/ f'/a'/g'/f'/ | g'c' c' z | d'd'/e'/ f'/e'/f'/d'/ | %21
 c'f'/a'/ c'' z | c''c''/d''/ c''/b'/a'/g'/ | f'a'/c''/ f''!8va)! z ||[K:C]!mf! [Ge][Ge][Ge][Ge] | %25
 !>![Gf][GB] [GB]2 |!<(! [Gf][Gf][G^f][Gf]!<)! | [Gg]2- [Gg] z | %28
!p!!8va(! d''d''/a'/ d''/a'/d''/a'/ | c''c''/g'/ c''/g'/c''/g'/ | b'b'/g'/ b'/g'/b'/g'/ | %31
 c''/g'/d''/g'/ e''!8va)! z |!<(! [Ge][Ge][Ge][Ge]!<)! | !>![Gf][GB] [GB]2 | %34
!<(! [Gf][Gf][G^f][Gf]!<)! | [Gg]2- [Gg] z |!8va(! f''f''/d''/ f''/d''/f''/d''/ | %37
 e''e''/c''/ e''/c''/e''/c''/ | d''d''/g'/ d''/g'/d''/g'/ | c''c''/c''/ c''c'' || %40
[K:F]!p! c''c''/b'/ a'/c''/b'/a'/ | b'g' g' z | a'a'/g'/ f'/a'/g'/f'/ | g'c' c' z | %44
 d'd'/e'/ f'/e'/f'/d'/ | c'f'/a'/ c'' z | c''c''/d''/ c''/b'/a'/g'/ | a'f' c'' z | %48
 c''c''/b'/ a'/c''/b'/a'/ | b'g' g' z | a'a'/g'/ f'/a'/g'/f'/ | g'c' c' z | d'd'/e'/ f'/e'/f'/d'/ | %53
 c'f'/a'/ c'' z | c''c''/d''/ c''/b'/a'/g'/ | f'a'/c''/ f''!8va)! z || %56
[K:Bb]!ff! [cefa][cefa]/[cefa]/ [cefa][cefa] | [cefa][cefa]/[cefa]/ [cefa][cefa] | %58
 [cefa][cefa][cefa][cefa] | [cefa] z !>![ff']!8va(!f' || b'/f'/c''/f'/ d''/f'/f''/f'/ | %61
 b'/f'/c''/f'/ d''/f'/f''/f'/ | f''/f'/e''/f'/ d''/f'/c''/f'/ | d''/f'/c''/f'/ b'f' | %64
 b'/f'/c''/f'/ d''/f'/f''/f'/ | b'/f'/c''/f'/ d''/f'/f''/f'/ | f''/f'/e''/f'/ d''/f'/c''/f'/ | %67
 b'/f'/d''/f'/ b' z!8va)! ||!f! [Bd]/[Bd]/[Bd] [Bd]/[Bd]/[Bd] | ((!>![ce]2 [Bd])) z | %70
!p! c'c'/b/ a/c'/b/a/ | b/a/g/^f/ g z |!f! [Bd]/[Bd]/[Bd] [Bd]/[Bd]/[Bd] | ((!>![ce]2 [Bd])) z | %74
!<(! g{/a}g/^f/ g/a/b/c'/!<)! | d' z !>![ff']!p!!8va(!f' | b'/f'/c''/f'/ d''/f'/f''/f'/ | %77
 b'/f'/c''/f'/ d''/f'/f''/f'/ | f''/f'/e''/f'/ d''/f'/c''/f'/ | d''/f'/c''/f'/ b'f' | %80
 b'/f'/c''/f'/ d''/f'/f''/f'/ | b'/f'/c''/f'/ d''/f'/f''/f'/ | f''/f'/e''/f'/ d''/f'/c''/f'/ | %83
 b'/f'/d''/f'/ b' z!8va)! ||[K:F]!p!!8va(! c''c''/b'/ a'/c''/b'/a'/ | b'g' g' z | %86
 a'a'/g'/ f'/a'/g'/f'/ | g'c' c' z | d'd'/e'/ f'/e'/f'/d'/ | c'f'/a'/ c'' z | %90
 c''c''/d''/ c''/b'/a'/g'/ | a'f' c'' z |!p! c''c''/b'/ a'/c''/b'/a'/ | b'g' g' z | %94
 a'a'/g'/ f'/a'/g'/f'/ | g'c' c' z | d'd'/e'/ f'/e'/f'/d'/ | c'f'/a'/ c'' z | %98
 c''c''/d''/ c''/b'/a'/g'/ | f'a'/c''/ f''/f'/f''/f'/ | f''/f'/a'/c''/ f''/f'/f''/f'/ | %101
 f''/f'/a'/c''/ f''/f'/a'/c''/ | f'' z f'' z!8va)! | [A,CF]2- [A,CF] z |] %104
V:2
 [G,B,]4 | [F,A,]4 | [C,G,]2 [F,A,]2 | [C,G,]2- [C,G,] z |[K:treble] [GB]4 | [FA]4 | [CG]2 [FA]2 | %7
 [CG] z z2 ||[K:bass] F,[A,C] [A,C]2 | E,[G,C] [G,C]2 | F,[A,C] F,[A,C] | C,[E,G,] [E,G,]2 | %12
 B,,[D,G,]B,,[D,G,] | C,[F,A,] [F,A,]2 | C,[B,C]E,[B,C] | F,[A,C] [A,C]2 | F,[A,C] [A,C]2 | %17
 E,[G,C] [G,C]2 | F,[A,C] F,[A,C] | %19
"_Maison DE AYNSSA\n  E. DE SAEDELER et E. POSSOZ, Succrs\n37, Boulevard du Jardin Botanique, Bruxelles.\n" C,[E,G,] [E,G,]2 | %20
 B,,[D,G,]B,,[D,G,] | C,[F,A,] [F,A,]2 | C,[B,C]E,[B,C] | F,[A,C] [A,C] z || %24
[K:C] [C,,C,]2 [^C,,^C,]2 | [D,,D,][G,DF] [G,DF]2 | [D,,D,]2 [^D,,^D,]2 | [E,,E,][G,CE] [G,CE]2 | %28
 F,[A,D][A,D][A,D] | G,[CE][CE][CE] | G,[DF][DF][DF] | C,[G,CE][G,CE] z | [C,,C,]2 [^C,,^C,]2 | %33
 [D,,D,][G,DF] [G,DF]2 | [D,,D,]2 [^D,,^D,]2 | [E,,E,][G,CE] [G,CE]2 | F,[A,D][A,D][A,D] | %37
 G,[CE][CE][CE] | G,[B,F][B,F][B,F] | [CE] z z2 ||[K:F] F,[A,C] [A,C]2 | E,[G,C] [G,C]2 | %42
 F,[A,C] F,[A,C] | C,[E,G,] [E,G,]2 | B,,[D,G,]B,,[D,G,] | C,[F,A,] [F,A,]2 | C,[B,C]E,[B,C] | %47
 F,[A,C] [A,C]2 | F,[A,C] [A,C]2 | E,[G,C] [G,C]2 | F,[A,C] F,[A,C] | C,[E,G,] [E,G,]2 | %52
 B,,[D,G,]B,,[D,G,] | C,[F,A,] [F,A,]2 | C,[B,C]E,[B,C] | F,[A,C] [A,C]2 || %56
[K:Bb] [F,,F,]3 [A,,A,] | [C,C]3 [D,D] | [E,E]2 [C,C][A,,A,] | [F,,F,] z [F,A,CE] z || %60
 B,,[F,B,D][F,B,D] z | B,,[F,B,D][F,B,D] z | F,[A,E]F,[A,E] | B,,[F,B,D][F,B,D] z | %64
 B,,[F,B,D][F,B,D] z | B,,[F,B,D][F,B,D] z | F,[A,E]F,[A,E] | B,,[F,B,D][F,B,D] z || %68
 [G,,G,]2 [G,,G,]2 | (([^F,,^F,]2 [G,,G,])) z |x[CD][CD][CD] | G,[B,D][B,D] z | [G,,G,]2 [G,,G,]2 | %73
 (([^F,,^F,]2 [G,,G,])) z | [E,,E,]2 [E,G,^C]2 | [D,^F,A,D] z [=F,A,CE] z | B,,[F,B,D][F,B,D] z | %77
 B,,[F,B,D][F,B,D] z | F,[A,E]F,[A,E] | B,,[F,B,D][F,B,D] z | B,,[F,B,D][F,B,D] z | %81
 B,,[F,B,D][F,B,D] z | F,[A,E]F,[A,E] | B,,[F,B,D][F,B,D] z ||[K:F] F,[A,C] [A,C]2 | %85
 E,[G,C] [G,C]2 | F,[A,C] F,[A,C] | C,[E,G,] [E,G,]2 | B,,[D,G,]B,,[D,G,] | C,[F,A,] [F,A,]2 | %90
 C,[B,C]E,[B,C] | F,[A,C] [A,C]2 | F,[A,C] [A,C]2 | E,[G,C] [G,C]2 | F,[A,C] F,[A,C] | %95
 C,[E,G,] [E,G,]2 | B,,[D,G,]B,,[D,G,] | C,[F,A,] [F,A,]2 | C,[B,C]E,[B,C] | %99
 [F,A,C]2 z"^cres  -" [F,B,_D] |"^-       cen             -            do" [F,A,C]2 z [F,B,_D] | %101
 [F,A,C]2 [F,A,C]2 | [F,A,C]2 [F,A,C]2 | [F,,F,]2- [F,,F,] z |] %104
V:3
 x4 | x4 | x4 | x4 |[K:treble] x4 | x4 | x4 | x4 ||[K:bass] x4 | x4 | x4 | x4 | x4 | x4 | x4 | x4 | %16
 x4 | x4 | x4 | x4 | x4 | x4 | x4 | x4 ||[K:C] x4 | x4 | x4 | x4 | x4 | x4 | x4 | x4 | x4 | x4 | %34
 x4 | x4 | x4 | x4 | x4 | x4 ||[K:F] x4 | x4 | x4 | x4 | x4 | x4 | x4 | x4 | x4 | x4 | x4 | x4 | %52
 x4 | x4 | x4 | x4 ||[K:Bb] x4 | x4 | x4 | x4 || x4 | x4 | x4 | x4 | x4 | x4 | x4 | x4 || x4 | x4 | %70
 F,4 | x4 | x4 | x4 | x4 | x4 | x4 | x4 | x4 | x4 | x4 | x4 | x4 | x4 ||[K:F] x4 | x4 | x4 | x4 | %88
 x4 | x4 | x4 | x4 | x4 | x4 | x4 | x4 | x4 | x4 | x4 | x4 | x4 | x4 | x4 | x4 |] %104

